src/topics/icons/vulkan.svg

<svg height="147" preserveAspectRatio="xMidYMid" viewBox="0 0 512 147" width="512" xmlns="http://www.w3.org/2000/svg"><path d="m47.2713464 62.5974989c-5.954905 17.5202162 4.6261245 37.3042806 26.4279666 54.9229251-48.4758792-20.7683463-79.82525486-51.1826542-72.68921173-77.1184799 9.89203223-35.92628614 89.71728703-49.6570174 170.67446573-34.00693661 71.606502 13.82915941 123.576582 54.18471371 134.256039 82.53202981-23.622763-21.3589153-59.79512-42.963901-104.087801-54.0862855-73.771922-18.6029262-143.0161473-6.1517613-154.5814586 27.7567471zm90.2586416 81.6461761h-24.902329l-32.4813001-100.3967446h22.6384821l22.343197 70.6222196h.295284l22.638482-70.6222196h22.786124zm100.249103 0h-18.996639v-10.138103h-.442927c-2.509918 4.232412-5.807263 7.283686-9.842818 9.153821-4.035555 1.870136-8.169539 2.805203-12.352737 2.805203-5.364336 0-9.74439-.688997-13.140162-2.116205-3.444986-1.427209-6.102547-3.395773-8.071111-5.954905-1.968563-2.559133-3.346558-5.708835-4.133983-9.399892-.787426-3.691056-1.181139-7.82504-1.181139-12.303522v-44.7356086h19.980921v41.0445516c0 6.004119.935068 10.482601 2.805203 13.435447 1.870136 2.952845 5.216694 4.429268 9.990461 4.429268 5.41355 0 9.399891-1.624065 11.811382-4.872195 2.460704-3.24813 3.641842-8.563252 3.641842-15.945366v-38.0917056h19.980921v72.6892116zm13.23859-85.2880188c6.889973 3.3957722 13.533875 7.086829 19.980921 11.0239563v74.2148485h-19.980921zm54.972139 85.2880188h-19.98092v-63.8306753c6.397831 3.5434145 14.813441 10.0888885 19.98092 16.3882921zm24.65626-46.0151745 30.512736 46.0151745h-24.213333l-27.658319-43.751326-.049214-2.8052035 25.197615-26.1818962h23.622763zm-24.607046-21.6541999c-4.724552-7.4805418-11.466883-15.207154-19.98092-22.835338v-9.9412463h19.98092zm58.761625 17.3233599c.295284-4.6753386 1.476422-8.5632518 3.543414-11.6637395s4.675339-5.5611922 7.874255-7.4313276c3.198915-1.8701355 6.791544-3.1989159 10.777885-3.9863414 3.986342-.7874254 7.972683-1.1811382 12.008239-1.1811382 3.641842 0 7.382113.2460705 11.122384.7874255s7.185257 1.5256368 10.285745 3.0020595c3.100488 1.5256368 5.610406 3.5926286 7.57897 6.2501895 1.968563 2.6575609 2.952845 6.2009754 2.952845 10.6302436v37.8456361c0 3.297344.196857 6.447045.541355 9.399891.393713 3.002059 1.033496 5.265907 1.968564 6.74233h-20.276205c-.393713-1.131924-.688998-2.263848-.935068-3.444986-.246071-1.181138-.393713-2.362276-.492141-3.592629-3.198916 3.297344-6.939187 5.561192-11.270027 6.889973-4.33084 1.32878-8.710894 1.968564-13.23859 1.968564-3.444986 0-6.693116-.442927-9.695176-1.279567-3.002059-.836639-5.610406-2.16542-7.874254-3.937127-2.263849-1.771707-4.035556-4.035555-5.265908-6.74233-1.279566-2.706775-1.91935-5.954905-1.91935-9.695176 0-4.133984.738212-7.529756 2.16542-10.187317 1.476423-2.657561 3.346558-4.822981 5.610407-6.397832 2.313062-1.574851 4.921409-2.805203 7.874254-3.592628 2.952846-.787426 5.905691-1.427209 8.907751-1.91935 3.002059-.442927 5.954904-.836639 8.858536-1.131924 2.903631-.295285 5.462764-.688997 7.726612-1.2795664 2.263848-.541355 4.035555-1.3779945 5.364336-2.4607045 1.32878-1.08271 1.919349-2.6575609 1.820921-4.7245527 0-2.16542-.344498-3.8879131-1.08271-5.1182654-.688997-1.2795664-1.624065-2.2638482-2.805203-2.9528454-1.181138-.6889973-2.509919-1.1811382-4.084769-1.4272087-1.525637-.2460704-3.198916-.3444986-4.970624-.3444986-3.937127 0-7.037614.8366395-9.301463 2.5099186-2.263848 1.6732791-3.543414 4.4784823-3.937127 8.4156095h-19.833278zm46.162817 14.7642275c-.83664.738211-1.91935 1.32878-3.149702 1.771707-1.279567.442927-2.608347.787425-4.08477 1.08271-1.427208.295284-2.952845.492141-4.57691.688997-1.574851.196857-3.198916.442927-4.773767.688997-1.476423.295285-2.952845.639784-4.429268 1.131925-1.476423.49214-2.706775 1.08271-3.789485 1.919349-1.08271.787426-1.968564 1.820921-2.608347 3.00206-.639783 1.230352-.984282 2.755989-.984282 4.626124 0 1.771707.344499 3.297344.984282 4.478482.639783 1.230353 1.525637 2.16542 2.657561 2.903632 1.131924.688997 2.460705 1.181138 3.937127 1.476422 1.525637.295285 3.051274.442927 4.626125.442927 3.937127 0 6.988401-.639783 9.153821-1.968563 2.16542-1.328781 3.74027-2.903632 4.773766-4.724553s1.673279-3.691057 1.91935-5.561192c.24607-1.870136.344499-3.395773.344499-4.478483zm32.875012-37.1566387h18.996639v10.1381026h.442927c2.509918-4.2324117 5.807262-7.2836854 9.842818-9.2030349 4.035555-1.9193495 8.169539-2.9036313 12.352737-2.9036313 5.364336 0 9.74439.7382113 13.140162 2.1654199 3.444986 1.4764228 6.102547 3.4942005 8.071111 6.0533332 1.968563 2.5591327 3.346558 5.7088345 4.133983 9.3998913.787426 3.6910568 1.181138 7.8250404 1.181138 12.3035226v44.7356083h-19.98092v-41.044551c0-6.0041195-.935068-10.4826018-2.805203-13.4354472-1.870136-2.9528454-5.216694-4.4292682-9.990461-4.4292682-5.41355 0-9.350677 1.624065-11.811382 4.872195-2.460704 3.24813-3.641842 8.5632518-3.641842 15.9453654v38.091706h-19.980921v-72.6892117z" fill="#a41e22"/></svg>

<?xml version="1.0" encoding="UTF-8"?>
<svg width="512px" height="147px" viewBox="0 0 512 147" version="1.1" xmlns="http://www.w3.org/2000/svg" xmlns:xlink="http://www.w3.org/1999/xlink" preserveAspectRatio="xMidYMid">
    <g>
        <path d="M47.2713464,62.5974989 C41.3164414,80.1177151 51.8974709,99.9017795 73.699313,117.520424 C25.2234338,96.7520777 -6.12594186,66.3377698 1.01010127,40.4019441 C10.9021335,4.47565796 90.7273883,-9.2550733 171.684567,6.39500749 C243.291069,20.2241669 295.261149,60.5797212 305.940606,88.9270373 C282.317843,67.568122 246.145486,45.9631363 201.852805,34.8407518 C128.080883,16.2378256 58.8366577,28.6889905 47.2713464,62.5974989 Z M137.529988,144.243675 L112.627659,144.243675 L80.1463589,43.8469304 L102.784841,43.8469304 L125.128038,114.46915 L125.423322,114.46915 L148.061804,43.8469304 L170.847928,43.8469304 L137.529988,144.243675 Z M237.779091,144.243675 L218.782452,144.243675 L218.782452,134.105572 L218.339525,134.105572 C215.829607,138.337984 212.532262,141.389258 208.496707,143.259393 C204.461152,145.129529 200.327168,146.064596 196.14397,146.064596 C190.779634,146.064596 186.39958,145.375599 183.003808,143.948391 C179.558822,142.521182 176.901261,140.552618 174.932697,137.993486 C172.964134,135.434353 171.586139,132.284651 170.798714,128.593594 C170.011288,124.902538 169.617575,120.768554 169.617575,116.290072 L169.617575,71.5544634 L189.598496,71.5544634 L189.598496,112.599015 C189.598496,118.603134 190.533564,123.081616 192.403699,126.034462 C194.273835,128.987307 197.620393,130.46373 202.39416,130.46373 C207.80771,130.46373 211.794051,128.839665 214.205542,125.591535 C216.666246,122.343405 217.847384,117.028283 217.847384,109.646169 L217.847384,71.5544634 L237.828305,71.5544634 L237.828305,144.243675 L237.779091,144.243675 Z M251.017681,58.9556562 L251.017681,58.9556562 C257.907654,62.3514284 264.551556,66.0424852 270.998602,69.9796125 L270.998602,144.194461 L251.017681,144.194461 L251.017681,58.9556562 Z M305.98982,144.243675 L286.0089,144.243675 L286.0089,80.4129997 C292.406731,83.9564142 300.822341,90.5018882 305.98982,96.8012918 L305.98982,144.243675 Z M330.64608,98.2285005 L361.158816,144.243675 L336.945483,144.243675 L309.287164,100.492349 L309.23795,97.6871455 L334.435565,71.5052493 L358.058328,71.5052493 L330.64608,98.2285005 Z M306.039034,76.5743006 C301.314482,69.0937588 294.572151,61.3671466 286.058114,53.7389626 L286.058114,43.7977163 L306.039034,43.7977163 L306.039034,76.5743006 Z M364.800659,93.8976605 C365.095943,89.2223219 366.277081,85.3344087 368.344073,82.233921 C370.411065,79.1334333 373.019412,76.6727288 376.218328,74.8025934 C379.417243,72.9324579 383.009872,71.6036775 386.996213,70.816252 C390.982555,70.0288266 394.968896,69.6351138 399.004452,69.6351138 C402.646294,69.6351138 406.386565,69.8811843 410.126836,70.4225393 C413.867107,70.9638943 417.312093,71.9481761 420.412581,73.4245988 C423.513069,74.9502356 426.022987,77.0172274 427.991551,79.6747883 C429.960114,82.3323492 430.944396,85.8757637 430.944396,90.3050319 L430.944396,128.150668 C430.944396,131.448012 431.141253,134.597713 431.485751,137.550559 C431.879464,140.552618 432.519247,142.816466 433.454315,144.292889 L413.17811,144.292889 C412.784397,143.160965 412.489112,142.029041 412.243042,140.847903 C411.996971,139.666765 411.849329,138.485627 411.750901,137.255274 C408.551985,140.552618 404.811714,142.816466 400.480874,144.145247 C396.150034,145.474027 391.76998,146.113811 387.242284,146.113811 C383.797298,146.113811 380.549168,145.670884 377.547108,144.834244 C374.545049,143.997605 371.936702,142.668824 369.672854,140.897117 C367.409005,139.12541 365.637298,136.861562 364.406946,134.154787 C363.12738,131.448012 362.487596,128.199882 362.487596,124.459611 C362.487596,120.325627 363.225808,116.929855 364.653016,114.272294 C366.129439,111.614733 367.999574,109.449313 370.263423,107.874462 C372.576485,106.299611 375.184832,105.069259 378.137677,104.281834 C381.090523,103.494408 384.043368,102.854625 387.045428,102.362484 C390.047487,101.919557 393.000332,101.525845 395.903964,101.23056 C398.807595,100.935275 401.366728,100.541563 403.630576,99.9509936 C405.894424,99.4096386 407.666131,98.5729991 408.994912,97.4902891 C410.323692,96.4075791 410.914261,94.8327282 410.815833,92.7657364 C410.815833,90.6003164 410.471335,88.8778233 409.733123,87.647471 C409.044126,86.3679046 408.109058,85.3836228 406.92792,84.6946256 C405.746782,84.0056283 404.418001,83.5134874 402.843151,83.2674169 C401.317514,83.0213465 399.644235,82.9229183 397.872527,82.9229183 C393.9354,82.9229183 390.834913,83.7595578 388.571064,85.4328369 C386.307216,87.106116 385.02765,89.9113192 384.633937,93.8484464 L364.800659,93.8484464 L364.800659,93.8976605 Z M410.963476,108.661888 C410.126836,109.400099 409.044126,109.990668 407.813774,110.433595 C406.534207,110.876522 405.205427,111.22102 403.729004,111.516305 C402.301796,111.811589 400.776159,112.008446 399.152094,112.205302 C397.577243,112.402159 395.953178,112.648229 394.378327,112.894299 C392.901904,113.189584 391.425482,113.534083 389.949059,114.026224 C388.472636,114.518364 387.242284,115.108934 386.159574,115.945573 C385.076864,116.732999 384.19101,117.766494 383.551227,118.947633 C382.911444,120.177985 382.566945,121.703622 382.566945,123.573757 C382.566945,125.345464 382.911444,126.871101 383.551227,128.052239 C384.19101,129.282592 385.076864,130.217659 386.208788,130.955871 C387.340712,131.644868 388.669493,132.137009 390.145915,132.432293 C391.671552,132.727578 393.197189,132.87522 394.77204,132.87522 C398.709167,132.87522 401.760441,132.235437 403.925861,130.906657 C406.091281,129.577876 407.666131,128.003025 408.699627,126.182104 C409.733123,124.361183 410.372906,122.491047 410.618977,120.620912 C410.865047,118.750776 410.963476,117.225139 410.963476,116.142429 L410.963476,108.661888 L410.963476,108.661888 Z M443.838488,71.5052493 L462.835127,71.5052493 L462.835127,81.6433519 L463.278054,81.6433519 C465.787972,77.4109402 469.085316,74.3596665 473.120872,72.440317 C477.156427,70.5209675 481.290411,69.5366857 485.473609,69.5366857 C490.837945,69.5366857 495.217999,70.274897 498.613771,71.7021056 C502.058757,73.1785284 504.716318,75.1963061 506.684882,77.7554388 C508.653445,80.3145715 510.03144,83.4642733 510.818865,87.1553301 C511.606291,90.8463869 512.000003,94.9803705 512.000003,99.4588527 L512.000003,144.194461 L492.019083,144.194461 L492.019083,103.14991 C492.019083,97.1457905 491.084015,92.6673082 489.21388,89.7144628 C487.343744,86.7616174 483.997186,85.2851946 479.223419,85.2851946 C473.809869,85.2851946 469.872742,86.9092596 467.412037,90.1573896 C464.951333,93.4055196 463.770195,98.7206414 463.770195,106.102755 L463.770195,144.194461 L443.789274,144.194461 L443.789274,71.5052493 L443.838488,71.5052493 Z" fill="#A41E22" fill-rule="nonzero"></path>
    </g>
</svg>
